X:12
I:linebreak $
T:Pavane: Mille Ducas
C:Tylman Susato, Danserye, 1551
M:C|
L:1/4
K:D dorian
"Dm"DD "C"E"Am"E | "Dm"F"Bb"F "Em"G"Am"E | "Am"E"C"E "Dm"F"Am"E | "Dm"D"Gm"D "Am"C2 | "Dm"DD "Am"EE | "Dm"F"Bb"F "Em"G"Am"E | 
"Am"E"C"E "Dm"F"Em"E/D/ | "A"^C/B,/C "D"D2 | "C"E3/E/ "Dm"F/G/"F"A/G/ | "Bb"F/E/D "A"^C3/D/ | "C"EE "F"F2 | "C"E"Dm"D "A"E2 |:
"Am"CC "Bb"D"G"B, | "Am"C"F"A, "G"B,"Am"C | "Bb Dm"D2 "F"F2 | "C"E"Dm Asus4"D2^C | "D"D4 :| 

